!!!OTL: 101. Hektors Abschied.
!!!COM: Volksweise
!!!ODT: 1800 (um)
!!!ARE: Europa, Mitteleuropa, Deutschland
!!!SCT: B0101
!!!TXL: @@DE
!!!YEM: Copyright 1995, estate of Helmut Schaffrath.
**kern	**text
*ICvox	*
*Ivox	*
*M4/4	*
*met(c)	*
*clefG2	*
*k[]	*
*C:	*
!LO:TX:a:t=Gehend.	!
{8e	"Will
8f	ſich
=1	=1
4.g	Hek-
8g	-tor
8g	e-
8cc	-wig
8dd	von
8cc	mit
=2	=2
8ccL	wen-
8bJ	.
4b	-den,
4r}	.
{8b	wo
8cc	A-
=3	=3
4.dd	-chill
8b	mit
8g	den
8a	un-
8g	-nah-
8f	-barn
=4	=4
8eL	Hän-
8gJ	.
4cc	-den
4r}	.
{(12gL	dem
12aJ	.
12b)	Pa-
=5	=5
4.cc	-trok-
8a	-lus
8f#	ſchreck-
8d	-lich
8b	Op-
8a	-fer
=6	=6
4g	bringt?
4r	.
4r}	.
=||	=||
{8g	Wer
8g	wird
=7	=7
8gL	künf-
8bJ	.
4dd	-tig
(12ddL	dei-
12ccJ	.
12b)	-nen
(12bL	Kleinen
12aJ	.
12g)	.
=8	=8
8gL	leh-
8ccJ	.
4cc	-ren
4r}	.
{8g	Spee-
8g	-re
=9	=9
8gL	wer-
8bJ	.
4dd	-fen
(12ddL	und
12ccJ	.
12b)	die
(12bL	Göt-
12aJ	.
12g)	-ter
=10	=10
8gL	eh-
8ccJ	.
4cc	-ren,
4r}	.
{(12gL	wenn
12aJ	.
12b/)	der
=11	=11
4.cc	fin-
8e	-ſtre
8f	Or-
8g	-kus
8a	dich
8b	ver-
=12	=12
(8ccL	-ſchlingt,
8ddJ)	.
4ee	.
4r}	.
{8cc	wenn
8a	der
=13	=13
4.g	fin-
8e	-ſtre
8a	Or-
8g	-kus
8f	dich
8d	verſchlingt?"
=14	=14
4c	.
4r	.
4r}	.
==	==
!!!GTL: Helden- und Ehrengedächtnißlieder
!!!AGN: Helden -, Ehren -, Gedaechtnis -, Kriegs - Lied
!!!ONB: ESAC (Essen Associative Code) Database: BOEHME
!!!AMT: simple quadruple
!!!AIN: vox
!!!EED: Helmut Schaffrath
!!!EEV: 1.0
!!Volksweiſe, um 1800 entſtanden, mündl. 1859.
!!Text: Fr. Schiller
!!!URL-scan: https://archive.org/details/BoehmeVtLieder1895/page/n111/mode/1up
!!!ENC: Anna Maria Matuszewska
!!!EEV: 2024/17/06
*-	*-
